X: 1052
M: 6/8
L: 1/8
K: C
cBc e2d | cBc e2d | cBc edc | dBG G2G |\
cBc e2d | cBc g2f | edc GAB | c3  c2 :|
|: z |\
gfe a2g | fed g2f | edc cde | fef d2e |\
gfe a2g | fed g2f | edc GAB | c3  c2 :|

